X:1684
T:Duchess of Gordon's reel
O:england
M:2/4
L:1/8
K:A
e2|\
dcBA a2c2 | d2f2 B2d2 | c2e2 dcBA | G2B2 B2e2 |\
dcBA a2c2 | d2f2 B2d2 | c2A2 EFAB | c2A2 A4 :|
|:E2|\
C2E2 A2c2 | D2F2 B2d2 | c2e2 dcBA | G2B2 B2e2 | \
dcBA e2c2 | f2d2 g2e2 | a2e2 dcBA | E2A2 A4:|


